X:20
T: A víg egri kaszárnyának
O: Egerszolát
Q: "Menetelő"
M:4/4
L:1/4
K:C
d<d A d | c<A F G | A<G D F | E<D D z | 
d c e<d | c<A c c | F<A A z | 
d<c e<d | c A c c | F<A A z | 
d<d A<d | c<A F<G | A<G D F | E<D D z | 

